X: 15
T: Galway, The
Z: Yoann
S: https://thesession.org/tunes/38#setting51830
R: hornpipe
M: 4/4
L: 1/8
K: Dmaj
|:FE|D2FA dAFD|EDEF G2FE|D2FA dcdf|(3efe (3dcB (3ABA (3GFE|
D2FA dAFD|EDEF G2FG|AdcB AGFE|D2F2 D2:|
|:de|f2fg fedc|B^ABc B2cd|e^def e=dcB|(3ABA ^GB A2 (3ABc|
dcde fdAF|GFGA B2FG|AdcB AGFE|D2F2 D2:|

